X: 39
T: No_13_Third_Initiation_Song.krn
N: Derived from No_13_Third_Initiation_Song.krn
%%abc-version 2.0
%%abcx-abcm2ps-target-version 5.9.1 (29 Sep 2008)
%%abc-creator hum2abc beta
%%abcx-conversion-date 2019/03/15 08:29:13
%%humdrum-veritas 1015796449
%%humdrum-veritas-data 1641031208
%%linebreak <none>
%%barnumbers 0
L: 1/8
M: 2/4
%%staves {1 2}
V: 1 clef=bass
V: 2 clef=bass
K: G
[V:1] D [I:setbarnb 1]| 
[V:2] z | 
[V:1] D2DD | 
[V:2] G,,G,, G,,G,, | 
[V:1] D4 | 
[V:2] G,,G,, G,,G,, | 
[V:1] D3B, | 
[V:2] z4 | 
[V:1] D2B,G, | 
[V:2] z4 | 
[V:1] G,2G,3/B,/ | 
[V:2] z4 | 
[V:1] B,2B,B, | 
[V:2] z4 | 
[V:1] G,4 | 
[V:2] z4 | 
[V:1] G,3E, | 
[V:2] z4 | 
[V:1] G,2G,G, | 
[V:2] z4 | 
[V:1] G,2G,3/B,/ | 
[V:2] z4 | 
[V:1] B,2DD | 
[V:2] z4 | 
[V:1] B,4 | 
[V:2] z4 | 
[V:1] B,3D | 
[V:2] z4 | 
[V:1] B,2A,G, | 
[V:2] z4 | 
[V:1] G,2E,G, | 
[V:2] z4 | 
[V:1] G,2G,G, | 
[V:2] z4 | 
[V:1] G,4 | 
[V:2] z4 | 
[V:1] G,3E, | 
[V:2] z4 | 
[V:1] G,2E,D, | 
[V:2] z4 | 
[V:1] D,2D,3/D,/ | 
[V:2] z4 | 
[V:1] D,2D,D, | 
[V:2] z4 | 
[V:1] D,4 | 
[V:2] z4 | 
[V:1] D,3B,, | 
[V:2] z4 | 
[V:1] D,2B,,G,, | 
[V:2] z4 | 
[V:1] G,,2G,,2 |]  
[V:2] z4 |]  



